X:1
T:Title
%%score 1 2
L:1/8
Q:1/4=100
M:6/8
K:F
V:1 treble nm="Grand Piano, Soprano"
V:2 bass nm="Choir Pad, Shall I Let Him In?"
V:1
 [FA]2 [FA] [FA][CG][CF] | [Ec]2 [Ec] [FA]3 | [EG]2 [EG] [DF]2 [EG] | [FA]6 | %4
w: By~Horatio~Richmond~Palmer * * * *||||
 [FA][FA][FA] [FA][CG][CF] | [Ec]2 [Ec] [FA]2 [EG] | [DF]2 [DF] [FA]2 [CG] | [CF]6 | %8
w: ||||
 [EG]2 [EG] [EG][_E^F][=EG] | [GB]2 [FA] [EG]3 | [FA]2 [FA] [FA][F_A][F=A] | [Fc]2 [EB] [FA]3 | %12
w: ||||
 [Fc]2 [Fc] [Fc][F=B][Fc] | [Fd][Fe][Ff] [Fc]2 [CA] | [DF]2 [DF] [FA]2 [CG] | [CF]6- | [CF]3 z3 |] %17
w: |||||
V:2
 [F,C]2 [F,C] [F,C][G,B,]A, | [G,C]2 [C,C] [F,C]3 | [C,B,]2 [C,B,] [D,A,]2 [C,C] | [F,C]6 | %4
 [F,C][F,C][F,C] [F,C][G,B,]A, | [G,C]2 [C,C] [F,C]2 [C,B,] | [D,A,]2 [D,A,] [C,C]2 [C,B,] | %7
 [F,A,]6 | [C,C]2 [C,C] [C,C][C,C][C,C] | [C,C]2 [C,C] [C,C]3 | [F,C]2 [F,C] [F,C][F,=B,][F,C] | %11
 [A,F]2 [G,C][K:bass] [F,C]3 | [F,A,]2 [F,A,] [F,A,][F,_A,][F,=A,] | [F,B,][F,C][F,D] [F,A,]2 F, | %14
 [D,A,]2 [D,A,] [C,C]2 [C,B,] | [F,A,]6- | [F,A,]3 z3 |] %17

